icons/bell.svg

<?xml version="1.0" encoding="UTF-8"?><svg xmlns="http://www.w3.org/2000/svg" viewBox="0 0 50 50"><g id="uuid-1ccd4bba-0d59-41b7-85a7-ad6c86edba5d"><rect x="45.39" y="1.11" width="2.08" height="2.08" rx="1.04" ry="1.04" fill="none"/><path d="M46.85,39.63h-4.02c0-2.9,0-16.59,0-16.59,0-8.04-6.75-14.69-15.46-15.7,.73-.66,1.2-1.6,1.2-2.66,0-1.97-1.6-3.58-3.58-3.58s-3.58,1.6-3.58,3.58c0,1.07,.48,2.02,1.22,2.67-8.66,1.06-15.35,7.68-15.35,15.69v16.59H3.15c-.28,0-.5,.22-.5,.5v4.73c0,.28,.22,.5,.5,.5H21.18c.03,1.94,1.62,3.52,3.57,3.52s3.54-1.57,3.57-3.52h18.53c.28,0,.5-.22,.5-.5v-4.73c0-.28-.22-.5-.5-.5Zm-24.67,5.73h5.14c-.03,1.39-1.17,2.52-2.57,2.52s-2.54-1.12-2.57-2.52Zm24.17-1H3.65v-3.73H7.77s.09-.01,.14-.02l34.16,.02h0s.08-.01,.12-.02c.05,.01,.1,.03,.15,.03h4.02v3.73ZM22.42,4.69c0-1.42,1.16-2.58,2.58-2.58s2.58,1.16,2.58,2.58c0,1.25-.9,2.3-2.08,2.53-.14,0-.29-.02-.43-.02-.17,0-.34,.02-.52,.02-1.2-.22-2.12-1.27-2.12-2.53Zm2.64,3.51c9.25,0,16.77,6.66,16.77,14.85,0,0,0,13.68,0,16.58l-33.54-.02V23.05c0-8.19,7.52-14.85,16.77-14.85Z"/></g><g id="uuid-6ffda3de-946c-42b9-8d8e-e336f4b78e3d"><text transform="translate(-.17 55.01)" font-family="Roboto-Regular, Roboto" font-size="6"><tspan x="0" y="0">bell</tspan></text></g></svg>

<svg xmlns="http://www.w3.org/2000/svg" viewBox="0 0 50 50"><defs><style>.cls-1{fill:none;}.cls-2{font-size:6px;font-family:Roboto-Regular, Roboto;}</style></defs><g id="ICONS"><rect class="cls-1" x="45.39" y="1.11" width="2.08" height="2.08" rx="1.04"/><path d="M46.85,39.63h-4V23.05c0-8-6.76-14.69-15.46-15.7a3.58,3.58,0,1,0-4.73,0C14,8.42,7.29,15,7.29,23.05V39.63H3.15a.5.5,0,0,0-.5.5v4.74a.5.5,0,0,0,.5.5h18a3.57,3.57,0,0,0,7.14,0H46.85a.5.5,0,0,0,.5-.5V40.13A.5.5,0,0,0,46.85,39.63ZM22.18,45.37h5.14a2.57,2.57,0,0,1-5.14,0Zm24.17-1H3.65V40.63H7.77l.13,0,34.16,0h0l.12,0,.15,0h4ZM22.42,4.69a2.58,2.58,0,1,1,3.07,2.53l-.43,0-.52,0A2.57,2.57,0,0,1,22.42,4.69ZM25.06,8.2c9.24,0,16.77,6.66,16.77,14.85V39.63l-33.54,0V23.05C8.29,14.86,15.81,8.2,25.06,8.2Z"/></g><g id="LABELS"><text class="cls-2" transform="translate(-0.17 55.01)">bell</text></g></svg>
